X:1
T:Glory to God the Father
T:Glory to God the Father
T:James McGranahan
T:Daniel Webster Whittle, 1884
T:Public Domain Courtesy of the Cyber Hymnal™
T:Public Domain Courtesy of the Cyber Hymnal™
C:James McGranahan
Z:Public Domain
Z:Courtesy of the Cyber Hymnal™
%%score ( 1 2 ) ( 3 4 )
L:1/8
Q:1/4=110
M:4/4
K:F
V:1 treble 
V:2 treble 
V:3 bass 
V:4 bass 
V:1
 C2 | [CF]2 [FA]2 [FA]2 (GF) | [EG]2 [EB]2 [EB]2 ([FA][EG]) | [FA]2 [Fc]2 [Fc]2 ([GB][FA]) | %4
w: 1.~“For|God so loved!” Oh, *|won- drous theme! Oh! *|won- drous key to *|
w: 2.~In|love God gave, in *|love Christ came, That *|man might know the *|
w: 3.~As|man He tar- ried *|here be- low, The *|power and love of *|
w: 4.~Up-|on the cross His *|life He gave, His *|peo- ple from their *|
w: 5.~By|God ex- alt- ed *|from the dead, He *|reigns on high, the *|
 [FA]2 [EG]2 [EG]2 C2 | [CF]2 [FA]2 [FA]2 (GF) | [EG]2 [EB]2 [EB]4 | %7
w: won- drous scheme! A|Sav- ior sent to *|sin- ful men—|
w: Fa- ther’s name, And|in the Son sal- *|va- tion claim—|
w: God to show; To|help and heal all *|hu- man woe—|
w: sins to save; For|them de- scend- ed *|to the grave—|
w: liv- ing Head Of|ev- ery soul for *|whom He bled—|
 ([FA][GB]) [Ac]>[Bd] [Ac]3 [FA] | [EG]4 F2 z2 ||"^Refrain" [Fc]2 [FA]>[FB] [Fc]2 [Fd]2 | %10
w: Glo- * ry to God the|Fa- ther!||
w: Glo- * ry to God the|Fa- ther!|Glo- ry to God the|
w: Glo- * ry to God the|Fa- ther!||
w: Glo- * ry to God the|Fa- ther!||
w: Glo- * ry to God the|Fa- ther!||
 [Fc]4 [Fc]3 z | [Ac]2 [FA]>[GB] [Ac]2 [Bd]2 | [Ac]4 [Ac]3 z | (cABc [Fd]2) [Fd] z | %14
w: ||||
w: Fa- ther!|Glo- ry to God the|Fa- ther!|Glo- * * * * ry,|
w: ||||
w: ||||
w: ||||
 (BG[FA][GB] [Ac]2) [Ac] z | (cF)[FG][FB] [FA]3 [GB] | G4 F2 |] %17
w: |||
w: glo- * * * * ry,|glo- * ry to God the|Fa- ther!|
w: |||
w: |||
w: |||
V:2
 C2 | x6 C2 | x8 | x8 | x6 C2 | x6 C2 | x8 | x8 | x4 F2 x2 || x8 | x8 | x8 | x8 | F4- x4 | E2 x6 | %15
 F2 x6 | (F2 E2) F2 |] %17
V:3
 [F,A,]2 | [F,A,]2 [F,C]2 [F,C]2 (B,A,) | [C,B,]2 [C,G,]2 [C,G,]2 [C,C]2 | %3
w: ~|~ ~ ~ ~ *|~ ~ ~ ~|
 [F,C]2 [F,A,]2 [F,A,]2 C2 | [C,C]2 [C,C]2 [C,C]2 [E,B,]2 | [F,A,]2 [F,C]2 [F,C]2 (B,A,) | %6
w: ~ ~ ~ ~|~ ~ ~ ~|~ ~ ~ ~ *|
 [C,B,]2 [C,G,]2 (G,2 C2) | [F,C]2 [F,F]>[F,F] [F,F]3 [F,C] | [C,B,]4 [F,,F,A,]2 z2 || %9
w: ~ ~ ~ *|~ ~ ~ ~ ~|~ ~|
 [F,A,]2 (C>B,) [F,A,]2 [F,B,]2 | A,4 [F,A,]2 [F,C] z | [F,F]2 (F>F) [F,F]2 [F,F]2 | %12
w: Glo- ry, * glo- ry,|glo- ry to|the Fa- * ther! Glo-|
 F4 [F,F]2 [F,C] z | [F,A,][_E,C][D,B,][C,A,] [B,,B,]2 [B,,D] z | C4- [F,C]2 [F,F] z | %15
w: ry, glo- ry,|glo- ry to the Fa- ther!||
 [A,,F]2 [B,,D][G,,D] [C,C]3 [C,C] | [C,B,]4 [F,,F,A,]2 |] %17
w: ||
V:4
 x2 | x6 F,2 | x8 | x6 (E,F,) | x8 | x6 F,2 | x4 C,4 | x8 | x8 || x2 F,2 x4 | F,C,A,,C, x4 | %11
 x2 F,2 x4 | F,C,A,,C, x4 | x8 | C,B,A,G, x4 | x8 | x6 |] %17

